!!!COM: Music21
!!!OTL: reel_Reel-De-Champs-De-Bleuets
!!!OMV: reel_Reel-De-Champs-De-Bleuets
**kern
*clefG2
*k[f#c#g#]
*A:
*M4/4
=1
4.ee
8dd
8cc#L
8aJ
8aL
8cc#J
=
8eeL
8ff#J
8eeL
8ddJ
8cc#L
8aJ
8bL
8cc#J
=
4dd
8ff#L
8ddJ
4cc#
8eeL
8cc#J
=
4b
8bL
8bJ
4.b
8dd
=
8eeL
8ff#J
8eeL
8ddJ
8cc#L
8aJ
8aL
8cc#J
!!linebreak:original
=
8eeL
8ff#J
8eeL
8ddJ
8cc#L
8aJ
8bL
8cc#J
=
4dd
8ff#L
8ddJ
4cc#
8eeL
8cc#J
=
4b
8aL
8bJ
8cc#L
8aJ
4a
=||
*M4/4
4.ee
8dd
8cc#L
8aJ
8aL
8cc#J
=
8eeL
8ff#J
8eeL
8ddJ
8cc#L
8aJ
8bL
8cc#J
!!linebreak:original
=
4dd
8ff#L
8ddJ
4cc#
8eeL
8cc#J
=
4b
8bL
8bJ
4.b
8dd
=
8eeL
8ff#J
8eeL
8ddJ
8cc#L
8aJ
8aL
8cc#J
=
8eeL
8ff#J
8eeL
8ddJ
8cc#L
8aJ
8bL
8cc#J
=
4dd
8ff#L
8ddJ
4cc#
8eeL
8cc#J
=
4b
8aL
8bJ
8cc#L
8aJ
4a
!!linebreak:original
=||
4.ee
8ff#
4.ggn
8ff#
=
8eeL
8ff#J
8eeL
8ddJ
8cc#L
8aJ
4a
=
4.ee
8ff#
4ggn
8bL
8cc#J
=
8ddL
8eeJ
8ddL
8ccnJ
8bL
8gnJ
4g#X
=
4.ee
8ff#
4.ggn
8ff#
=
8eeL
8ff#J
8eeL
8ddJ
8cc#L
8aJ
8bL
8cc#J
!!linebreak:original
=
4dd
8ff#L
8ddJ
4cc#
8eeL
8cc#J
=
4b
8aL
8bJ
8cc#L
8aJ
4a
=||
*M4/4
4.ee
8dd
8cc#L
8aJ
8aL
8cc#J
=
8eeL
8ff#J
8eeL
8ddJ
8cc#L
8aJ
8bL
8cc#J
=
4dd
8ff#L
8ddJ
4cc#
8eeL
8cc#J
=
4b
8bL
8bJ
4.b
8dd
!!linebreak:original
=
8eeL
8ff#J
8eeL
8ddJ
8cc#L
8aJ
8aL
8cc#J
=
8eeL
8ff#J
8eeL
8ddJ
8cc#L
8aJ
8bL
8cc#J
=
4dd
8ff#L
8ddJ
4cc#
8eeL
8cc#J
=
4b
8aL
8bJ
8cc#L
8aJ
4a
=||
*M4/4
4.ee
8dd
8cc#L
8aJ
8aL
8cc#J
!!linebreak:original
=
8eeL
8ff#J
8eeL
8ddJ
8cc#L
8aJ
8bL
8cc#J
=
4dd
8ff#L
8ddJ
4cc#
8eeL
8cc#J
=
4b
8bL
8bJ
4.b
8dd
=
8eeL
8ff#J
8eeL
8ddJ
8cc#L
8aJ
8aL
8cc#J
=
8eeL
8ff#J
8eeL
8ddJ
8cc#L
8aJ
8bL
8cc#J
=
4dd
8ff#L
8ddJ
4cc#
8eeL
8cc#J
!!linebreak:original
=
4b
8aL
8bJ
8cc#L
8aJ
4a
=||
4.ee
8ff#
4.ggn
8ff#
=
8eeL
8ff#J
8eeL
8ddJ
8cc#L
8aJ
4a
=
4.ee
8ff#
4ggn
8bL
8cc#J
=
8ddL
8eeJ
8ddL
8ccnJ
8bL
8gnJ
4g#X
=
4.ee
8ff#
4.ggn
8ff#
!!linebreak:original
=
8eeL
8ff#J
8eeL
8ddJ
8cc#L
8aJ
8bL
8cc#J
=
4dd
8ff#L
8ddJ
4cc#
8eeL
8cc#J
=
4b
8aL
8bJ
8cc#L
8aJ
4a
=||
*-
